public/images/mobile/project/collect-not.svg

<svg width="24" height="24" viewBox="0 0 24 24" fill="none" xmlns="http://www.w3.org/2000/svg">
<path d="M16.2222 3.5C14.2029 3.5 12.5278 5.02679 12.0051 5.94015C11.4722 5.02679 9.7862 3.5 7.77778 3.5C4.61111 3.5 2.5 6.55358 2.5 9.59976C2.5 11.5694 3.4111 12.9395 4.07919 13.9441C5.64306 16.3161 8.87948 18.7771 10.6696 20.0329L10.7526 20.0913C11.1089 20.3584 11.5383 20.5 11.9947 20.5C12.4246 20.5 12.8444 20.3655 13.2087 20.1116L13.2321 20.0949C13.2468 20.0841 13.2761 20.0635 13.3183 20.0339C15.1079 18.7755 18.3454 16.3115 19.9238 13.9397C20.5889 12.9393 21.5 11.5694 21.5 9.59959C21.5 6.55358 19.3889 3.5 16.2222 3.5Z" stroke="white" stroke-width="2" stroke-linejoin="round"/>
</svg>

<svg xmlns="http://www.w3.org/2000/svg" width="24" height="24" fill="none"><path stroke="#fff" stroke-linejoin="round" stroke-width="2" d="M16.222 3.5c-2.02 0-3.694 1.527-4.217 2.44-.533-.913-2.219-2.44-4.227-2.44C4.61 3.5 2.5 6.554 2.5 9.6c0 1.97.911 3.34 1.58 4.344 1.563 2.372 4.8 4.833 6.59 6.089l.083.058c.356.267.785.409 1.242.409.43 0 .85-.134 1.214-.388l.023-.017.086-.061c1.79-1.258 5.027-3.723 6.606-6.094.665-1 1.576-2.37 1.576-4.34 0-3.046-2.111-6.1-5.278-6.1Z"/></svg>
